backend/papyrus-web-graphics/src/main/resources/icons-override/full/obj16/SequenceNode.svg

<?xml version="1.0" encoding="UTF-8" standalone="no"?>
<svg
   width="18"
   height="16"
   viewBox="0 0 4.7624998 4.2333332"
   version="1.1"
   id="svg8"
   inkscape:version="1.3 (0e150ed, 2023-07-21)"
   sodipodi:docname="SequenceNode.svg"
   xml:space="preserve"
   xmlns:inkscape="http://www.inkscape.org/namespaces/inkscape"
   xmlns:sodipodi="http://sodipodi.sourceforge.net/DTD/sodipodi-0.dtd"
   xmlns:xlink="http://www.w3.org/1999/xlink"
   xmlns="http://www.w3.org/2000/svg"
   xmlns:svg="http://www.w3.org/2000/svg"
   xmlns:rdf="http://www.w3.org/1999/02/22-rdf-syntax-ns#"
   xmlns:cc="http://creativecommons.org/ns#"
   xmlns:dc="http://purl.org/dc/elements/1.1/"><metadata
     id="metadata30"><rdf:RDF><cc:Work
         rdf:about=""><dc:format>image/svg+xml</dc:format><dc:type
           rdf:resource="http://purl.org/dc/dcmitype/StillImage" /></cc:Work></rdf:RDF></metadata><defs
     id="defs2"><linearGradient
       inkscape:collect="always"
       id="linearGradient872"><stop
         style="stop-color:#cae2f9;stop-opacity:1;"
         offset="0"
         id="stop868" /><stop
         style="stop-color:#fdfeff;stop-opacity:1"
         offset="1"
         id="stop870" /></linearGradient><linearGradient
       inkscape:collect="always"
       xlink:href="#linearGradient872"
       id="linearGradient860"
       x1="-1.3812866"
       y1="0.36660048"
       x2="-1.411305"
       y2="2.4246745"
       gradientUnits="userSpaceOnUse"
       gradientTransform="matrix(1.1808967,0,0,1.1911972,3.9520391,-0.28607853)" /><linearGradient
       id="linearGradient5591-4"><stop
         style="stop-color:#e0e566;stop-opacity:1;"
         offset="0"
         id="stop5593-0" /><stop
         style="stop-color:#82c448;stop-opacity:1;"
         offset="1"
         id="stop5595-5" /></linearGradient><linearGradient
       id="linearGradient5583-2"><stop
         style="stop-color:#426e4a;stop-opacity:1;"
         offset="0"
         id="stop5585-3" /><stop
         style="stop-color:#669f71;stop-opacity:1;"
         offset="1"
         id="stop5587-3" /></linearGradient><linearGradient
       inkscape:collect="always"
       xlink:href="#linearGradient872"
       id="linearGradient865"
       x1="-47.666786"
       y1="112.97314"
       x2="-163.75984"
       y2="34.596439"
       gradientUnits="userSpaceOnUse"
       gradientTransform="matrix(0.00998666,0,0,0.01146447,-1.5444891,1.8063531)" /></defs><sodipodi:namedview
     id="base"
     pagecolor="#ffffff"
     bordercolor="#666666"
     borderopacity="1.0"
     inkscape:pageopacity="0"
     inkscape:pageshadow="2"
     inkscape:zoom="22.753109"
     inkscape:cx="8.1307571"
     inkscape:cy="2.9886026"
     inkscape:document-units="mm"
     inkscape:current-layer="g882-7"
     inkscape:document-rotation="0"
     showgrid="false"
     inkscape:pagecheckerboard="false"
     inkscape:window-width="2560"
     inkscape:window-height="1387"
     inkscape:window-x="0"
     inkscape:window-y="25"
     inkscape:window-maximized="0"
     units="px"
     inkscape:showpageshadow="2"
     inkscape:deskcolor="#d1d1d1" /><g
     id="g27"><g
       id="g882"><rect
         style="fill:url(#linearGradient860);fill-opacity:1;stroke:#2e4f6e;stroke-width:0.251;stroke-linecap:round;stroke-miterlimit:4;stroke-dasharray:0.753, 0.753;stroke-dashoffset:0;stroke-opacity:1"
         id="rect852"
         width="3.8170176"
         height="2.769182"
         x="0.47274122"
         y="0.73207569"
         ry="0.77394843" /><g
         id="g882-8"
         transform="translate(6.0397246,0.13422021)"><rect
           style="fill:#4b7eb0;fill-opacity:0;stroke:none;stroke-width:0.0756102;stroke-miterlimit:4;stroke-dasharray:none;stroke-opacity:0.827451"
           id="rect840"
           width="2.277241"
           height="1.5517111"
           x="1.2306415"
           y="1.4287663" /><g
           id="g872"
           transform="translate(-13.153765,-3.1615317)"><g
             id="g882-7"
             transform="translate(13.93924,5.4444472)"><g
               id="g2"
               transform="translate(0.12668653)"><path
                 style="display:inline;fill:#2e4f6e;fill-opacity:1;stroke:#2e4f6e;stroke-width:0.0469197;stroke-linecap:butt;stroke-linejoin:miter;stroke-miterlimit:4;stroke-dasharray:none;stroke-opacity:1"
                 d="m 3.1403982,1.8243517 h 0.1653099 l 0.00328,0.2106243 h 0.2032057 l -0.00164,0.1583366 H 3.3027404 v 0.215669 H 3.1420368 V 2.1933126 H 2.9357584 l -0.00164,-0.1599308 h 0.2063808 z"
                 id="path5581-7"
                 inkscape:connector-curvature="0"
                 sodipodi:nodetypes="ccccccccccccc"
                 transform="translate(-6.8251996,-2.4171357)" /><path
                 style="display:inline;fill:#2e4f6e;fill-opacity:1;stroke:#2e4f6e;stroke-width:0.0469197;stroke-linecap:butt;stroke-linejoin:miter;stroke-miterlimit:4;stroke-dasharray:none;stroke-opacity:1"
                 d="m -5.6219891,-0.59278399 h 0.1653099 l 0.00328,0.2106243 h 0.2032057 l -0.00164,0.1583366 h -0.2078134 v 0.21566899 h -0.1607036 v -0.21566899 h -0.2062784 l -0.00164,-0.15993077 h 0.2063808 z"
                 id="path5581"
                 inkscape:connector-curvature="0"
                 sodipodi:nodetypes="ccccccccccccc" /><path
                 style="display:inline;fill:#2e4f6e;fill-opacity:1;stroke:#2e4f6e;stroke-width:0.0469197;stroke-linecap:butt;stroke-linejoin:miter;stroke-miterlimit:4;stroke-dasharray:none;stroke-opacity:1"
                 d="m -4.6533952,-0.59278399 h 0.1653099 l 0.00328,0.2106243 h 0.2032057 l -0.00164,0.1583366 H -4.491053 V -0.0081541 H -4.6517566 V -0.22382309 H -4.858035 l -0.00164,-0.15993077 h 0.2063808 z"
                 id="path5581-5"
                 inkscape:connector-curvature="0"
                 sodipodi:nodetypes="ccccccccccccc" /></g></g></g></g></g></g></svg>

<svg xmlns="http://www.w3.org/2000/svg" xmlns:xlink="http://www.w3.org/1999/xlink" xml:space="preserve" width="16" height="16">
    <defs>
        <linearGradient id="a">
            <stop offset="0" style="stop-color:#cae2f9;stop-opacity:1"/>
            <stop offset="1" style="stop-color:#fdfeff;stop-opacity:1"/>
        </linearGradient>
        <linearGradient xlink:href="#a" id="b" x1="-1.381" x2="-1.411" y1=".367" y2="2.425" gradientTransform="matrix(1.1809 0 0 1.1912 3.952 -.286)" gradientUnits="userSpaceOnUse"/>
    </defs>
    <g transform="translate(25.57 9.685)scale(3.92811)">
        <rect width="3.817" height="2.769" x=".473" y=".732" ry=".774" style="fill:url(#b);fill-opacity:1;stroke:#2e4f6e;stroke-width:.251;stroke-linecap:round;stroke-miterlimit:4;stroke-dasharray:.753,.753;stroke-dashoffset:0;stroke-opacity:1" transform="translate(-6.825 -2.417)"/>
        <path d="M3.14 1.824h.166l.003.211h.203l-.001.158h-.208v.216h-.161v-.216h-.206l-.002-.16h.206z" style="display:inline;fill:#2e4f6e;fill-opacity:1;stroke:#2e4f6e;stroke-width:.0469197;stroke-linecap:butt;stroke-linejoin:miter;stroke-miterlimit:4;stroke-dasharray:none;stroke-opacity:1" transform="translate(-6.699 -2.417)"/>
        <path d="M-5.622-.593h.165l.004.21h.203l-.002.16h-.208v.215h-.16v-.216h-.207l-.001-.16h.206zm.969 0h.165l.003.21h.203l-.001.16h-.208v.215h-.16v-.216h-.207l-.002-.16h.207z" style="display:inline;fill:#2e4f6e;fill-opacity:1;stroke:#2e4f6e;stroke-width:.0469197;stroke-linecap:butt;stroke-linejoin:miter;stroke-miterlimit:4;stroke-dasharray:none;stroke-opacity:1" transform="translate(.127)"/>
    </g>
</svg>
